X:1
T: John Paterson's Mare goes foremost
T: New Market
R:Jig
Q:180
K:F
M:6/8
L:1/16
c2|A2F2A2 f4c2|A2F2A2 f4c2|A2F2A2 f2c2B2|A6F4A2|B2G2B2 g4d2|B2G2B2 g4d2|B2G2B2 g2d2c2|B6G4c2|
A2F2A2 f4c2|A2F2A2 f4c2|A2F2A2 f2c2B2|A6 F2G2A2|B2A2B2 c2B2c2|d2B2d2 e2d2e2|f2e2d2 g2d2c2|B6G4c2|
A2c2F2 A2c2F2|A2c2F2 A2c2F2|A2c2F2 f2c2B2|A6F4c2|B2d2G2 B2d2G2|B2d2G2 B2d2G2|B2d2G2 g2d2c2|B6G4B2|
A2c2F2 A2c2F2|A2c2F2 A2c2F2|A2c2F2 f2c2B2|A6F2G2A2|B2A2B2 c2B2c2|d2B2d2 e2d2e2|f2e2d2 c2B2A2|G6F4||
